cheelee/dist/images/discord.svg

<svg width="37" height="28" viewBox="0 0 37 28" fill="none" xmlns="http://www.w3.org/2000/svg">
<path d="M31.3221 2.32105C28.9638 1.24674 26.4349 0.45523 23.7908 0.00190165C23.7427 -0.00684744 23.6946 0.015017 23.6698 0.0587469C23.3445 0.633057 22.9843 1.38229 22.732 1.97119C19.8881 1.54848 17.0588 1.54848 14.2732 1.97119C14.0209 1.3692 13.6476 0.633057 13.3209 0.0587469C13.2961 0.0164761 13.248 -0.00538839 13.1998 0.00190165C10.5572 0.453781 8.02832 1.24529 5.66861 2.32105C5.64818 2.32979 5.63067 2.34438 5.61905 2.36332C0.822312 9.47818 -0.491715 16.4182 0.152903 23.2721C0.155819 23.3056 0.174779 23.3377 0.20103 23.3581C3.36578 25.6655 6.43138 27.0664 9.44005 27.9949C9.48821 28.0095 9.53923 27.992 9.56987 27.9526C10.2816 26.9877 10.916 25.9702 11.4599 24.9003C11.492 24.8376 11.4614 24.7633 11.3958 24.7385C10.3895 24.3595 9.4313 23.8974 8.50958 23.3727C8.43668 23.3304 8.43084 23.2269 8.49791 23.1773C8.69187 23.033 8.88589 22.8829 9.0711 22.7313C9.10461 22.7036 9.1513 22.6977 9.1907 22.7152C15.246 25.46 21.8015 25.46 27.7854 22.7152C27.8248 22.6963 27.8715 22.7021 27.9064 22.7298C28.0917 22.8814 28.2857 23.033 28.4811 23.1773C28.5482 23.2269 28.5438 23.3304 28.4709 23.3727C27.5492 23.9076 26.591 24.3595 25.5832 24.737C25.5176 24.7618 25.4884 24.8376 25.5205 24.9003C26.0761 25.9687 26.7106 26.9862 27.4091 27.9512C27.4383 27.992 27.4908 28.0095 27.5389 27.9949C30.5622 27.0664 33.6278 25.6655 36.7925 23.3581C36.8203 23.3377 36.8378 23.3071 36.8407 23.2735C37.6122 15.3496 35.5485 8.46657 31.3702 2.36477C31.3599 2.34438 31.3425 2.32979 31.3221 2.32105ZM12.3642 19.0988C10.5411 19.0988 9.039 17.4371 9.039 15.3963C9.039 13.3556 10.512 11.6939 12.3642 11.6939C14.2309 11.6939 15.7185 13.3702 15.6894 15.3963C15.6894 17.4371 14.2163 19.0988 12.3642 19.0988ZM24.6586 19.0988C22.8356 19.0988 21.3334 17.4371 21.3334 15.3963C21.3334 13.3556 22.8064 11.6939 24.6586 11.6939C26.5254 11.6939 28.0129 13.3702 27.9838 15.3963C27.9838 17.4371 26.5254 19.0988 24.6586 19.0988Z" fill="#01FFC2"/>
</svg>

<svg xmlns="http://www.w3.org/2000/svg" width="37" height="28" fill="none" viewBox="0 0 37 28"><path fill="#01FFC2" d="M31.322 2.321a30.7 30.7 0 0 0-7.531-2.32.115.115 0 0 0-.121.058 21 21 0 0 0-.938 1.912 28.4 28.4 0 0 0-8.459 0A19 19 0 0 0 13.321.06.12.12 0 0 0 13.2.002 30.6 30.6 0 0 0 5.669 2.32a.1.1 0 0 0-.05.042C.822 9.478-.491 16.418.153 23.273a.13.13 0 0 0 .048.085 30.8 30.8 0 0 0 9.24 4.637.12.12 0 0 0 .129-.042 22 22 0 0 0 1.89-3.053.116.116 0 0 0-.064-.162 20 20 0 0 1-2.886-1.365.117.117 0 0 1-.012-.196c.194-.144.388-.294.573-.446a.12.12 0 0 1 .12-.016c6.055 2.745 12.61 2.745 18.594 0a.12.12 0 0 1 .121.015c.186.151.38.303.575.447a.117.117 0 0 1-.01.196c-.922.535-1.88.986-2.888 1.364a.117.117 0 0 0-.062.163 24.4 24.4 0 0 0 1.888 3.051.12.12 0 0 0 .13.044 30.7 30.7 0 0 0 9.253-4.637.12.12 0 0 0 .049-.085c.771-7.923-1.293-14.806-5.47-20.908a.1.1 0 0 0-.049-.044M12.364 19.099c-1.823 0-3.325-1.662-3.325-3.703s1.473-3.702 3.325-3.702c1.867 0 3.355 1.676 3.325 3.702 0 2.041-1.473 3.703-3.325 3.703m12.295 0c-1.823 0-3.326-1.662-3.326-3.703s1.473-3.702 3.326-3.702c1.866 0 3.354 1.676 3.325 3.702 0 2.041-1.459 3.703-3.325 3.703"/></svg>
